dart3d/example/assets/luts/cool.cube
TITLE "dart3d w25 cool grade"
LUT_3D_SIZE 16
0.000000 0.010000 0.040000
0.060000 0.010000 0.040000
0.120000 0.010000 0.040000
0.180000 0.010000 0.040000
0.240000 0.010000 0.040000
0.300000 0.010000 0.040000
0.360000 0.010000 0.040000
0.420000 0.010000 0.040000
0.480000 0.010000 0.040000
0.540000 0.010000 0.040000
0.600000 0.010000 0.040000
0.660000 0.010000 0.040000
0.720000 0.010000 0.040000
0.780000 0.010000 0.040000
0.840000 0.010000 0.040000
0.900000 0.010000 0.040000
0.000000 0.074667 0.040000
0.060000 0.074667 0.040000
0.120000 0.074667 0.040000
0.180000 0.074667 0.040000
0.240000 0.074667 0.040000
0.300000 0.074667 0.040000
0.360000 0.074667 0.040000
0.420000 0.074667 0.040000
0.480000 0.074667 0.040000
0.540000 0.074667 0.040000
0.600000 0.074667 0.040000
0.660000 0.074667 0.040000
0.720000 0.074667 0.040000
0.780000 0.074667 0.040000
0.840000 0.074667 0.040000
0.900000 0.074667 0.040000
0.000000 0.139333 0.040000
0.060000 0.139333 0.040000
0.120000 0.139333 0.040000
0.180000 0.139333 0.040000
0.240000 0.139333 0.040000
0.300000 0.139333 0.040000
0.360000 0.139333 0.040000
0.420000 0.139333 0.040000
0.480000 0.139333 0.040000
0.540000 0.139333 0.040000
0.600000 0.139333 0.040000
0.660000 0.139333 0.040000
0.720000 0.139333 0.040000
0.780000 0.139333 0.040000
0.840000 0.139333 0.040000
0.900000 0.139333 0.040000
0.000000 0.204000 0.040000
0.060000 0.204000 0.040000
0.120000 0.204000 0.040000
0.180000 0.204000 0.040000
0.240000 0.204000 0.040000
0.300000 0.204000 0.040000
0.360000 0.204000 0.040000
0.420000 0.204000 0.040000
0.480000 0.204000 0.040000
0.540000 0.204000 0.040000
0.600000 0.204000 0.040000
0.660000 0.204000 0.040000
0.720000 0.204000 0.040000
0.780000 0.204000 0.040000
0.840000 0.204000 0.040000
0.900000 0.204000 0.040000
0.000000 0.268667 0.040000
0.060000 0.268667 0.040000
0.120000 0.268667 0.040000
0.180000 0.268667 0.040000
0.240000 0.268667 0.040000
0.300000 0.268667 0.040000
0.360000 0.268667 0.040000
0.420000 0.268667 0.040000
0.480000 0.268667 0.040000
0.540000 0.268667 0.040000
0.600000 0.268667 0.040000
0.660000 0.268667 0.040000
0.720000 0.268667 0.040000
0.780000 0.268667 0.040000
0.840000 0.268667 0.040000
0.900000 0.268667 0.040000
0.000000 0.333333 0.040000
0.060000 0.333333 0.040000
0.120000 0.333333 0.040000
0.180000 0.333333 0.040000
0.240000 0.333333 0.040000
0.300000 0.333333 0.040000
0.360000 0.333333 0.040000
0.420000 0.333333 0.040000
0.480000 0.333333 0.040000
0.540000 0.333333 0.040000
0.600000 0.333333 0.040000
0.660000 0.333333 0.040000
0.720000 0.333333 0.040000
0.780000 0.333333 0.040000
0.840000 0.333333 0.040000
0.900000 0.333333 0.040000
0.000000 0.398000 0.040000
0.060000 0.398000 0.040000
0.120000 0.398000 0.040000
0.180000 0.398000 0.040000
0.240000 0.398000 0.040000
0.300000 0.398000 0.040000
0.360000 0.398000 0.040000
0.420000 0.398000 0.040000
0.480000 0.398000 0.040000
0.540000 0.398000 0.040000
0.600000 0.398000 0.040000
0.660000 0.398000 0.040000
0.720000 0.398000 0.040000
0.780000 0.398000 0.040000
0.840000 0.398000 0.040000
0.900000 0.398000 0.040000
0.000000 0.462667 0.040000
0.060000 0.462667 0.040000
0.120000 0.462667 0.040000
0.180000 0.462667 0.040000
0.240000 0.462667 0.040000
0.300000 0.462667 0.040000
0.360000 0.462667 0.040000
0.420000 0.462667 0.040000
0.480000 0.462667 0.040000
0.540000 0.462667 0.040000
0.600000 0.462667 0.040000
0.660000 0.462667 0.040000
0.720000 0.462667 0.040000
0.780000 0.462667 0.040000
0.840000 0.462667 0.040000
0.900000 0.462667 0.040000
0.000000 0.527333 0.040000
0.060000 0.527333 0.040000
0.120000 0.527333 0.040000
0.180000 0.527333 0.040000
0.240000 0.527333 0.040000
0.300000 0.527333 0.040000
0.360000 0.527333 0.040000
0.420000 0.527333 0.040000
0.480000 0.527333 0.040000
0.540000 0.527333 0.040000
0.600000 0.527333 0.040000
0.660000 0.527333 0.040000
0.720000 0.527333 0.040000
0.780000 0.527333 0.040000
0.840000 0.527333 0.040000
0.900000 0.527333 0.040000
0.000000 0.592000 0.040000
0.060000 0.592000 0.040000
0.120000 0.592000 0.040000
0.180000 0.592000 0.040000
0.240000 0.592000 0.040000
0.300000 0.592000 0.040000
0.360000 0.592000 0.040000
0.420000 0.592000 0.040000
0.480000 0.592000 0.040000
0.540000 0.592000 0.040000
0.600000 0.592000 0.040000
0.660000 0.592000 0.040000
0.720000 0.592000 0.040000
0.780000 0.592000 0.040000
0.840000 0.592000 0.040000
0.900000 0.592000 0.040000
0.000000 0.656667 0.040000
0.060000 0.656667 0.040000
0.120000 0.656667 0.040000
0.180000 0.656667 0.040000
0.240000 0.656667 0.040000
0.300000 0.656667 0.040000
0.360000 0.656667 0.040000
0.420000 0.656667 0.040000
0.480000 0.656667 0.040000
0.540000 0.656667 0.040000
0.600000 0.656667 0.040000
0.660000 0.656667 0.040000
0.720000 0.656667 0.040000
0.780000 0.656667 0.040000
0.840000 0.656667 0.040000
0.900000 0.656667 0.040000
0.000000 0.721333 0.040000
0.060000 0.721333 0.040000
0.120000 0.721333 0.040000
0.180000 0.721333 0.040000
0.240000 0.721333 0.040000
0.300000 0.721333 0.040000
0.360000 0.721333 0.040000
0.420000 0.721333 0.040000
0.480000 0.721333 0.040000
0.540000 0.721333 0.040000
0.600000 0.721333 0.040000
0.660000 0.721333 0.040000
0.720000 0.721333 0.040000
0.780000 0.721333 0.040000
0.840000 0.721333 0.040000
0.900000 0.721333 0.040000
0.000000 0.786000 0.040000
0.060000 0.786000 0.040000
0.120000 0.786000 0.040000
0.180000 0.786000 0.040000
0.240000 0.786000 0.040000
0.300000 0.786000 0.040000
0.360000 0.786000 0.040000
0.420000 0.786000 0.040000
0.480000 0.786000 0.040000
0.540000 0.786000 0.040000
0.600000 0.786000 0.040000
0.660000 0.786000 0.040000
0.720000 0.786000 0.040000
0.780000 0.786000 0.040000
0.840000 0.786000 0.040000
0.900000 0.786000 0.040000
0.000000 0.850667 0.040000
0.060000 0.850667 0.040000
0.120000 0.850667 0.040000
0.180000 0.850667 0.040000
0.240000 0.850667 0.040000
0.300000 0.850667 0.040000
0.360000 0.850667 0.040000
0.420000 0.850667 0.040000
0.480000 0.850667 0.040000
0.540000 0.850667 0.040000
0.600000 0.850667 0.040000
0.660000 0.850667 0.040000
0.720000 0.850667 0.040000
0.780000 0.850667 0.040000
0.840000 0.850667 0.040000
0.900000 0.850667 0.040000
0.000000 0.915333 0.040000
0.060000 0.915333 0.040000
0.120000 0.915333 0.040000
0.180000 0.915333 0.040000
0.240000 0.915333 0.040000
0.300000 0.915333 0.040000
0.360000 0.915333 0.040000
0.420000 0.915333 0.040000
0.480000 0.915333 0.040000
0.540000 0.915333 0.040000
0.600000 0.915333 0.040000
0.660000 0.915333 0.040000
0.720000 0.915333 0.040000
0.780000 0.915333 0.040000
0.840000 0.915333 0.040000
0.900000 0.915333 0.040000
0.000000 0.980000 0.040000
0.060000 0.980000 0.040000
0.120000 0.980000 0.040000
0.180000 0.980000 0.040000
0.240000 0.980000 0.040000
0.300000 0.980000 0.040000
0.360000 0.980000 0.040000
0.420000 0.980000 0.040000
0.480000 0.980000 0.040000
0.540000 0.980000 0.040000
0.600000 0.980000 0.040000
0.660000 0.980000 0.040000
0.720000 0.980000 0.040000
0.780000 0.980000 0.040000
0.840000 0.980000 0.040000
0.900000 0.980000 0.040000
0.000000 0.010000 0.112000
0.060000 0.010000 0.112000
0.120000 0.010000 0.112000
0.180000 0.010000 0.112000
0.240000 0.010000 0.112000
0.300000 0.010000 0.112000
0.360000 0.010000 0.112000
0.420000 0.010000 0.112000
0.480000 0.010000 0.112000
0.540000 0.010000 0.112000
0.600000 0.010000 0.112000
0.660000 0.010000 0.112000
0.720000 0.010000 0.112000
0.780000 0.010000 0.112000
0.840000 0.010000 0.112000
0.900000 0.010000 0.112000
0.000000 0.074667 0.112000
0.060000 0.074667 0.112000
0.120000 0.074667 0.112000
0.180000 0.074667 0.112000
0.240000 0.074667 0.112000
0.300000 0.074667 0.112000
0.360000 0.074667 0.112000
0.420000 0.074667 0.112000
0.480000 0.074667 0.112000
0.540000 0.074667 0.112000
0.600000 0.074667 0.112000
0.660000 0.074667 0.112000
0.720000 0.074667 0.112000
0.780000 0.074667 0.112000
0.840000 0.074667 0.112000
0.900000 0.074667 0.112000
0.000000 0.139333 0.112000
0.060000 0.139333 0.112000
0.120000 0.139333 0.112000
0.180000 0.139333 0.112000
0.240000 0.139333 0.112000
0.300000 0.139333 0.112000
0.360000 0.139333 0.112000
0.420000 0.139333 0.112000
0.480000 0.139333 0.112000
0.540000 0.139333 0.112000
0.600000 0.139333 0.112000
0.660000 0.139333 0.112000
0.720000 0.139333 0.112000
0.780000 0.139333 0.112000
0.840000 0.139333 0.112000
0.900000 0.139333 0.112000
0.000000 0.204000 0.112000
0.060000 0.204000 0.112000
0.120000 0.204000 0.112000
0.180000 0.204000 0.112000
0.240000 0.204000 0.112000
0.300000 0.204000 0.112000
0.360000 0.204000 0.112000
0.420000 0.204000 0.112000
0.480000 0.204000 0.112000
0.540000 0.204000 0.112000
0.600000 0.204000 0.112000
0.660000 0.204000 0.112000
0.720000 0.204000 0.112000
0.780000 0.204000 0.112000
0.840000 0.204000 0.112000
0.900000 0.204000 0.112000
0.000000 0.268667 0.112000
0.060000 0.268667 0.112000
0.120000 0.268667 0.112000
0.180000 0.268667 0.112000
0.240000 0.268667 0.112000
0.300000 0.268667 0.112000
0.360000 0.268667 0.112000
0.420000 0.268667 0.112000
0.480000 0.268667 0.112000
0.540000 0.268667 0.112000
0.600000 0.268667 0.112000
0.660000 0.268667 0.112000
0.720000 0.268667 0.112000
0.780000 0.268667 0.112000
0.840000 0.268667 0.112000
0.900000 0.268667 0.112000
0.000000 0.333333 0.112000
0.060000 0.333333 0.112000
0.120000 0.333333 0.112000
0.180000 0.333333 0.112000
0.240000 0.333333 0.112000
0.300000 0.333333 0.112000
0.360000 0.333333 0.112000
0.420000 0.333333 0.112000
0.480000 0.333333 0.112000
0.540000 0.333333 0.112000
0.600000 0.333333 0.112000
0.660000 0.333333 0.112000
0.720000 0.333333 0.112000
0.780000 0.333333 0.112000
0.840000 0.333333 0.112000
0.900000 0.333333 0.112000
0.000000 0.398000 0.112000
0.060000 0.398000 0.112000
0.120000 0.398000 0.112000
0.180000 0.398000 0.112000
0.240000 0.398000 0.112000
0.300000 0.398000 0.112000
0.360000 0.398000 0.112000
0.420000 0.398000 0.112000
0.480000 0.398000 0.112000
0.540000 0.398000 0.112000
0.600000 0.398000 0.112000
0.660000 0.398000 0.112000
0.720000 0.398000 0.112000
0.780000 0.398000 0.112000
0.840000 0.398000 0.112000
0.900000 0.398000 0.112000
0.000000 0.462667 0.112000
0.060000 0.462667 0.112000
0.120000 0.462667 0.112000
0.180000 0.462667 0.112000
0.240000 0.462667 0.112000
0.300000 0.462667 0.112000
0.360000 0.462667 0.112000
0.420000 0.462667 0.112000
0.480000 0.462667 0.112000
0.540000 0.462667 0.112000
0.600000 0.462667 0.112000
0.660000 0.462667 0.112000
0.720000 0.462667 0.112000
0.780000 0.462667 0.112000
0.840000 0.462667 0.112000
0.900000 0.462667 0.112000
0.000000 0.527333 0.112000
0.060000 0.527333 0.112000
0.120000 0.527333 0.112000
0.180000 0.527333 0.112000
0.240000 0.527333 0.112000
0.300000 0.527333 0.112000
0.360000 0.527333 0.112000
0.420000 0.527333 0.112000
0.480000 0.527333 0.112000
0.540000 0.527333 0.112000
0.600000 0.527333 0.112000
0.660000 0.527333 0.112000
0.720000 0.527333 0.112000
0.780000 0.527333 0.112000
0.840000 0.527333 0.112000
0.900000 0.527333 0.112000
0.000000 0.592000 0.112000
0.060000 0.592000 0.112000
0.120000 0.592000 0.112000
0.180000 0.592000 0.112000
0.240000 0.592000 0.112000
0.300000 0.592000 0.112000
0.360000 0.592000 0.112000
0.420000 0.592000 0.112000
0.480000 0.592000 0.112000
0.540000 0.592000 0.112000
0.600000 0.592000 0.112000
0.660000 0.592000 0.112000
0.720000 0.592000 0.112000
0.780000 0.592000 0.112000
0.840000 0.592000 0.112000
0.900000 0.592000 0.112000
0.000000 0.656667 0.112000
0.060000 0.656667 0.112000
0.120000 0.656667 0.112000
0.180000 0.656667 0.112000
0.240000 0.656667 0.112000
0.300000 0.656667 0.112000
0.360000 0.656667 0.112000
0.420000 0.656667 0.112000
0.480000 0.656667 0.112000
0.540000 0.656667 0.112000
0.600000 0.656667 0.112000
0.660000 0.656667 0.112000
0.720000 0.656667 0.112000
0.780000 0.656667 0.112000
0.840000 0.656667 0.112000
0.900000 0.656667 0.112000
0.000000 0.721333 0.112000
0.060000 0.721333 0.112000
0.120000 0.721333 0.112000
0.180000 0.721333 0.112000
0.240000 0.721333 0.112000
0.300000 0.721333 0.112000
0.360000 0.721333 0.112000
0.420000 0.721333 0.112000
0.480000 0.721333 0.112000
0.540000 0.721333 0.112000
0.600000 0.721333 0.112000
0.660000 0.721333 0.112000
0.720000 0.721333 0.112000
0.780000 0.721333 0.112000
0.840000 0.721333 0.112000
0.900000 0.721333 0.112000
0.000000 0.786000 0.112000
0.060000 0.786000 0.112000
0.120000 0.786000 0.112000
0.180000 0.786000 0.112000
0.240000 0.786000 0.112000
0.300000 0.786000 0.112000
0.360000 0.786000 0.112000
0.420000 0.786000 0.112000
0.480000 0.786000 0.112000
0.540000 0.786000 0.112000
0.600000 0.786000 0.112000
0.660000 0.786000 0.112000
0.720000 0.786000 0.112000
0.780000 0.786000 0.112000
0.840000 0.786000 0.112000
0.900000 0.786000 0.112000
0.000000 0.850667 0.112000
0.060000 0.850667 0.112000
0.120000 0.850667 0.112000
0.180000 0.850667 0.112000
0.240000 0.850667 0.112000
0.300000 0.850667 0.112000
0.360000 0.850667 0.112000
0.420000 0.850667 0.112000
0.480000 0.850667 0.112000
0.540000 0.850667 0.112000
0.600000 0.850667 0.112000
0.660000 0.850667 0.112000
0.720000 0.850667 0.112000
0.780000 0.850667 0.112000
0.840000 0.850667 0.112000
0.900000 0.850667 0.112000
0.000000 0.915333 0.112000
0.060000 0.915333 0.112000
0.120000 0.915333 0.112000
0.180000 0.915333 0.112000
0.240000 0.915333 0.112000
0.300000 0.915333 0.112000
0.360000 0.915333 0.112000
0.420000 0.915333 0.112000
0.480000 0.915333 0.112000
0.540000 0.915333 0.112000
0.600000 0.915333 0.112000
0.660000 0.915333 0.112000
0.720000 0.915333 0.112000
0.780000 0.915333 0.112000
0.840000 0.915333 0.112000
0.900000 0.915333 0.112000
0.000000 0.980000 0.112000
0.060000 0.980000 0.112000
0.120000 0.980000 0.112000
0.180000 0.980000 0.112000
0.240000 0.980000 0.112000
0.300000 0.980000 0.112000
0.360000 0.980000 0.112000
0.420000 0.980000 0.112000
0.480000 0.980000 0.112000
0.540000 0.980000 0.112000
0.600000 0.980000 0.112000
0.660000 0.980000 0.112000
0.720000 0.980000 0.112000
0.780000 0.980000 0.112000
0.840000 0.980000 0.112000
0.900000 0.980000 0.112000
0.000000 0.010000 0.184000
0.060000 0.010000 0.184000
0.120000 0.010000 0.184000
0.180000 0.010000 0.184000
0.240000 0.010000 0.184000
0.300000 0.010000 0.184000
0.360000 0.010000 0.184000
0.420000 0.010000 0.184000
0.480000 0.010000 0.184000
0.540000 0.010000 0.184000
0.600000 0.010000 0.184000
0.660000 0.010000 0.184000
0.720000 0.010000 0.184000
0.780000 0.010000 0.184000
0.840000 0.010000 0.184000
0.900000 0.010000 0.184000
0.000000 0.074667 0.184000
0.060000 0.074667 0.184000
0.120000 0.074667 0.184000
0.180000 0.074667 0.184000
0.240000 0.074667 0.184000
0.300000 0.074667 0.184000
0.360000 0.074667 0.184000
0.420000 0.074667 0.184000
0.480000 0.074667 0.184000
0.540000 0.074667 0.184000
0.600000 0.074667 0.184000
0.660000 0.074667 0.184000
0.720000 0.074667 0.184000
0.780000 0.074667 0.184000
0.840000 0.074667 0.184000
0.900000 0.074667 0.184000
0.000000 0.139333 0.184000
0.060000 0.139333 0.184000
0.120000 0.139333 0.184000
0.180000 0.139333 0.184000
0.240000 0.139333 0.184000
0.300000 0.139333 0.184000
0.360000 0.139333 0.184000
0.420000 0.139333 0.184000
0.480000 0.139333 0.184000
0.540000 0.139333 0.184000
0.600000 0.139333 0.184000
0.660000 0.139333 0.184000
0.720000 0.139333 0.184000
0.780000 0.139333 0.184000
0.840000 0.139333 0.184000
0.900000 0.139333 0.184000
0.000000 0.204000 0.184000
0.060000 0.204000 0.184000
0.120000 0.204000 0.184000
0.180000 0.204000 0.184000
0.240000 0.204000 0.184000
0.300000 0.204000 0.184000
0.360000 0.204000 0.184000
0.420000 0.204000 0.184000
0.480000 0.204000 0.184000
0.540000 0.204000 0.184000
0.600000 0.204000 0.184000
0.660000 0.204000 0.184000
0.720000 0.204000 0.184000
0.780000 0.204000 0.184000
0.840000 0.204000 0.184000
0.900000 0.204000 0.184000
0.000000 0.268667 0.184000
0.060000 0.268667 0.184000
0.120000 0.268667 0.184000
0.180000 0.268667 0.184000
0.240000 0.268667 0.184000
0.300000 0.268667 0.184000
0.360000 0.268667 0.184000
0.420000 0.268667 0.184000
0.480000 0.268667 0.184000
0.540000 0.268667 0.184000
0.600000 0.268667 0.184000
0.660000 0.268667 0.184000
0.720000 0.268667 0.184000
0.780000 0.268667 0.184000
0.840000 0.268667 0.184000
0.900000 0.268667 0.184000
0.000000 0.333333 0.184000
0.060000 0.333333 0.184000
0.120000 0.333333 0.184000
0.180000 0.333333 0.184000
0.240000 0.333333 0.184000
0.300000 0.333333 0.184000
0.360000 0.333333 0.184000
0.420000 0.333333 0.184000
0.480000 0.333333 0.184000
0.540000 0.333333 0.184000
0.600000 0.333333 0.184000
0.660000 0.333333 0.184000
0.720000 0.333333 0.184000
0.780000 0.333333 0.184000
0.840000 0.333333 0.184000
0.900000 0.333333 0.184000
0.000000 0.398000 0.184000
0.060000 0.398000 0.184000
0.120000 0.398000 0.184000
0.180000 0.398000 0.184000
0.240000 0.398000 0.184000
0.300000 0.398000 0.184000
0.360000 0.398000 0.184000
0.420000 0.398000 0.184000
0.480000 0.398000 0.184000
0.540000 0.398000 0.184000
0.600000 0.398000 0.184000
0.660000 0.398000 0.184000
0.720000 0.398000 0.184000
0.780000 0.398000 0.184000
0.840000 0.398000 0.184000
0.900000 0.398000 0.184000
0.000000 0.462667 0.184000
0.060000 0.462667 0.184000
0.120000 0.462667 0.184000
0.180000 0.462667 0.184000
0.240000 0.462667 0.184000
0.300000 0.462667 0.184000
0.360000 0.462667 0.184000
0.420000 0.462667 0.184000
0.480000 0.462667 0.184000
0.540000 0.462667 0.184000
0.600000 0.462667 0.184000
0.660000 0.462667 0.184000
0.720000 0.462667 0.184000
0.780000 0.462667 0.184000
0.840000 0.462667 0.184000
0.900000 0.462667 0.184000
0.000000 0.527333 0.184000
0.060000 0.527333 0.184000
0.120000 0.527333 0.184000
0.180000 0.527333 0.184000
0.240000 0.527333 0.184000
0.300000 0.527333 0.184000
0.360000 0.527333 0.184000
0.420000 0.527333 0.184000
0.480000 0.527333 0.184000
0.540000 0.527333 0.184000
0.600000 0.527333 0.184000
0.660000 0.527333 0.184000
0.720000 0.527333 0.184000
0.780000 0.527333 0.184000
0.840000 0.527333 0.184000
0.900000 0.527333 0.184000
0.000000 0.592000 0.184000
0.060000 0.592000 0.184000
0.120000 0.592000 0.184000
0.180000 0.592000 0.184000
0.240000 0.592000 0.184000
0.300000 0.592000 0.184000
0.360000 0.592000 0.184000
0.420000 0.592000 0.184000
0.480000 0.592000 0.184000
0.540000 0.592000 0.184000
0.600000 0.592000 0.184000
0.660000 0.592000 0.184000
0.720000 0.592000 0.184000
0.780000 0.592000 0.184000
0.840000 0.592000 0.184000
0.900000 0.592000 0.184000
0.000000 0.656667 0.184000
0.060000 0.656667 0.184000
0.120000 0.656667 0.184000
0.180000 0.656667 0.184000
0.240000 0.656667 0.184000
0.300000 0.656667 0.184000
0.360000 0.656667 0.184000
0.420000 0.656667 0.184000
0.480000 0.656667 0.184000
0.540000 0.656667 0.184000
0.600000 0.656667 0.184000
0.660000 0.656667 0.184000
0.720000 0.656667 0.184000
0.780000 0.656667 0.184000
0.840000 0.656667 0.184000
0.900000 0.656667 0.184000
0.000000 0.721333 0.184000
0.060000 0.721333 0.184000
0.120000 0.721333 0.184000
0.180000 0.721333 0.184000
0.240000 0.721333 0.184000
0.300000 0.721333 0.184000
0.360000 0.721333 0.184000
0.420000 0.721333 0.184000
0.480000 0.721333 0.184000
0.540000 0.721333 0.184000
0.600000 0.721333 0.184000
0.660000 0.721333 0.184000
0.720000 0.721333 0.184000
0.780000 0.721333 0.184000
0.840000 0.721333 0.184000
0.900000 0.721333 0.184000
0.000000 0.786000 0.184000
0.060000 0.786000 0.184000
0.120000 0.786000 0.184000
0.180000 0.786000 0.184000
0.240000 0.786000 0.184000
0.300000 0.786000 0.184000
0.360000 0.786000 0.184000
0.420000 0.786000 0.184000
0.480000 0.786000 0.184000
0.540000 0.786000 0.184000
0.600000 0.786000 0.184000
0.660000 0.786000 0.184000
0.720000 0.786000 0.184000
0.780000 0.786000 0.184000
0.840000 0.786000 0.184000
0.900000 0.786000 0.184000
0.000000 0.850667 0.184000
0.060000 0.850667 0.184000
0.120000 0.850667 0.184000
0.180000 0.850667 0.184000
0.240000 0.850667 0.184000
0.300000 0.850667 0.184000
0.360000 0.850667 0.184000
0.420000 0.850667 0.184000
0.480000 0.850667 0.184000
0.540000 0.850667 0.184000
0.600000 0.850667 0.184000
0.660000 0.850667 0.184000
0.720000 0.850667 0.184000
0.780000 0.850667 0.184000
0.840000 0.850667 0.184000
0.900000 0.850667 0.184000
0.000000 0.915333 0.184000
0.060000 0.915333 0.184000
0.120000 0.915333 0.184000
0.180000 0.915333 0.184000
0.240000 0.915333 0.184000
0.300000 0.915333 0.184000
0.360000 0.915333 0.184000
0.420000 0.915333 0.184000
0.480000 0.915333 0.184000
0.540000 0.915333 0.184000
0.600000 0.915333 0.184000
0.660000 0.915333 0.184000
0.720000 0.915333 0.184000
0.780000 0.915333 0.184000
0.840000 0.915333 0.184000
0.900000 0.915333 0.184000
0.000000 0.980000 0.184000
0.060000 0.980000 0.184000
0.120000 0.980000 0.184000
0.180000 0.980000 0.184000
0.240000 0.980000 0.184000
0.300000 0.980000 0.184000
0.360000 0.980000 0.184000
0.420000 0.980000 0.184000
0.480000 0.980000 0.184000
0.540000 0.980000 0.184000
0.600000 0.980000 0.184000
0.660000 0.980000 0.184000
0.720000 0.980000 0.184000
0.780000 0.980000 0.184000
0.840000 0.980000 0.184000
0.900000 0.980000 0.184000
0.000000 0.010000 0.256000
0.060000 0.010000 0.256000
0.120000 0.010000 0.256000
0.180000 0.010000 0.256000
0.240000 0.010000 0.256000
0.300000 0.010000 0.256000
0.360000 0.010000 0.256000
0.420000 0.010000 0.256000
0.480000 0.010000 0.256000
0.540000 0.010000 0.256000
0.600000 0.010000 0.256000
0.660000 0.010000 0.256000
0.720000 0.010000 0.256000
0.780000 0.010000 0.256000
0.840000 0.010000 0.256000
0.900000 0.010000 0.256000
0.000000 0.074667 0.256000
0.060000 0.074667 0.256000
0.120000 0.074667 0.256000
0.180000 0.074667 0.256000
0.240000 0.074667 0.256000
0.300000 0.074667 0.256000
0.360000 0.074667 0.256000
0.420000 0.074667 0.256000
0.480000 0.074667 0.256000
0.540000 0.074667 0.256000
0.600000 0.074667 0.256000
0.660000 0.074667 0.256000
0.720000 0.074667 0.256000
0.780000 0.074667 0.256000
0.840000 0.074667 0.256000
0.900000 0.074667 0.256000
0.000000 0.139333 0.256000
0.060000 0.139333 0.256000
0.120000 0.139333 0.256000
0.180000 0.139333 0.256000
0.240000 0.139333 0.256000
0.300000 0.139333 0.256000
0.360000 0.139333 0.256000
0.420000 0.139333 0.256000
0.480000 0.139333 0.256000
0.540000 0.139333 0.256000
0.600000 0.139333 0.256000
0.660000 0.139333 0.256000
0.720000 0.139333 0.256000
0.780000 0.139333 0.256000
0.840000 0.139333 0.256000
0.900000 0.139333 0.256000
0.000000 0.204000 0.256000
0.060000 0.204000 0.256000
0.120000 0.204000 0.256000
0.180000 0.204000 0.256000
0.240000 0.204000 0.256000
0.300000 0.204000 0.256000
0.360000 0.204000 0.256000
0.420000 0.204000 0.256000
0.480000 0.204000 0.256000
0.540000 0.204000 0.256000
0.600000 0.204000 0.256000
0.660000 0.204000 0.256000
0.720000 0.204000 0.256000
0.780000 0.204000 0.256000
0.840000 0.204000 0.256000
0.900000 0.204000 0.256000
0.000000 0.268667 0.256000
0.060000 0.268667 0.256000
0.120000 0.268667 0.256000
0.180000 0.268667 0.256000
0.240000 0.268667 0.256000
0.300000 0.268667 0.256000
0.360000 0.268667 0.256000
0.420000 0.268667 0.256000
0.480000 0.268667 0.256000
0.540000 0.268667 0.256000
0.600000 0.268667 0.256000
0.660000 0.268667 0.256000
0.720000 0.268667 0.256000
0.780000 0.268667 0.256000
0.840000 0.268667 0.256000
0.900000 0.268667 0.256000
0.000000 0.333333 0.256000
0.060000 0.333333 0.256000
0.120000 0.333333 0.256000
0.180000 0.333333 0.256000
0.240000 0.333333 0.256000
0.300000 0.333333 0.256000
0.360000 0.333333 0.256000
0.420000 0.333333 0.256000
0.480000 0.333333 0.256000
0.540000 0.333333 0.256000
0.600000 0.333333 0.256000
0.660000 0.333333 0.256000
0.720000 0.333333 0.256000
0.780000 0.333333 0.256000
0.840000 0.333333 0.256000
0.900000 0.333333 0.256000
0.000000 0.398000 0.256000
0.060000 0.398000 0.256000
0.120000 0.398000 0.256000
0.180000 0.398000 0.256000
0.240000 0.398000 0.256000
0.300000 0.398000 0.256000
0.360000 0.398000 0.256000
0.420000 0.398000 0.256000
0.480000 0.398000 0.256000
0.540000 0.398000 0.256000
0.600000 0.398000 0.256000
0.660000 0.398000 0.256000
0.720000 0.398000 0.256000
0.780000 0.398000 0.256000
0.840000 0.398000 0.256000
0.900000 0.398000 0.256000
0.000000 0.462667 0.256000
0.060000 0.462667 0.256000
0.120000 0.462667 0.256000
0.180000 0.462667 0.256000
0.240000 0.462667 0.256000
0.300000 0.462667 0.256000
0.360000 0.462667 0.256000
