dart3d/example/assets/luts/cool.cube
TITLE "dart3d w25 cool grade"
LUT_3D_SIZE 6
0.000000 0.010000 0.040000
0.180000 0.010000 0.040000
0.360000 0.010000 0.040000
0.540000 0.010000 0.040000
0.720000 0.010000 0.040000
0.900000 0.010000 0.040000
0.000000 0.204000 0.040000
0.180000 0.204000 0.040000
0.360000 0.204000 0.040000
0.540000 0.204000 0.040000
0.720000 0.204000 0.040000
0.900000 0.204000 0.040000
0.000000 0.398000 0.040000
0.180000 0.398000 0.040000
0.360000 0.398000 0.040000
0.540000 0.398000 0.040000
0.720000 0.398000 0.040000
0.900000 0.398000 0.040000
0.000000 0.592000 0.040000
0.180000 0.592000 0.040000
0.360000 0.592000 0.040000
0.540000 0.592000 0.040000
0.720000 0.592000 0.040000
0.900000 0.592000 0.040000
0.000000 0.786000 0.040000
0.180000 0.786000 0.040000
0.360000 0.786000 0.040000
0.540000 0.786000 0.040000
0.720000 0.786000 0.040000
0.900000 0.786000 0.040000
0.000000 0.980000 0.040000
0.180000 0.980000 0.040000
0.360000 0.980000 0.040000
0.540000 0.980000 0.040000
0.720000 0.980000 0.040000
0.900000 0.980000 0.040000
0.000000 0.010000 0.256000
0.180000 0.010000 0.256000
0.360000 0.010000 0.256000
0.540000 0.010000 0.256000
0.720000 0.010000 0.256000
0.900000 0.010000 0.256000
0.000000 0.204000 0.256000
0.180000 0.204000 0.256000
0.360000 0.204000 0.256000
0.540000 0.204000 0.256000
0.720000 0.204000 0.256000
0.900000 0.204000 0.256000
0.000000 0.398000 0.256000
0.180000 0.398000 0.256000
0.360000 0.398000 0.256000
0.540000 0.398000 0.256000
0.720000 0.398000 0.256000
0.900000 0.398000 0.256000
0.000000 0.592000 0.256000
0.180000 0.592000 0.256000
0.360000 0.592000 0.256000
0.540000 0.592000 0.256000
0.720000 0.592000 0.256000
0.900000 0.592000 0.256000
0.000000 0.786000 0.256000
0.180000 0.786000 0.256000
0.360000 0.786000 0.256000
0.540000 0.786000 0.256000
0.720000 0.786000 0.256000
0.900000 0.786000 0.256000
0.000000 0.980000 0.256000
0.180000 0.980000 0.256000
0.360000 0.980000 0.256000
0.540000 0.980000 0.256000
0.720000 0.980000 0.256000
0.900000 0.980000 0.256000
0.000000 0.010000 0.472000
0.180000 0.010000 0.472000
0.360000 0.010000 0.472000
0.540000 0.010000 0.472000
0.720000 0.010000 0.472000
0.900000 0.010000 0.472000
0.000000 0.204000 0.472000
0.180000 0.204000 0.472000
0.360000 0.204000 0.472000
0.540000 0.204000 0.472000
0.720000 0.204000 0.472000
0.900000 0.204000 0.472000
0.000000 0.398000 0.472000
0.180000 0.398000 0.472000
0.360000 0.398000 0.472000
0.540000 0.398000 0.472000
0.720000 0.398000 0.472000
0.900000 0.398000 0.472000
0.000000 0.592000 0.472000
0.180000 0.592000 0.472000
0.360000 0.592000 0.472000
0.540000 0.592000 0.472000
0.720000 0.592000 0.472000
0.900000 0.592000 0.472000
0.000000 0.786000 0.472000
0.180000 0.786000 0.472000
0.360000 0.786000 0.472000
0.540000 0.786000 0.472000
0.720000 0.786000 0.472000
0.900000 0.786000 0.472000
0.000000 0.980000 0.472000
0.180000 0.980000 0.472000
0.360000 0.980000 0.472000
0.540000 0.980000 0.472000
0.720000 0.980000 0.472000
0.900000 0.980000 0.472000
0.000000 0.010000 0.688000
0.180000 0.010000 0.688000
0.360000 0.010000 0.688000
0.540000 0.010000 0.688000
0.720000 0.010000 0.688000
0.900000 0.010000 0.688000
0.000000 0.204000 0.688000
0.180000 0.204000 0.688000
0.360000 0.204000 0.688000
0.540000 0.204000 0.688000
0.720000 0.204000 0.688000
0.900000 0.204000 0.688000
0.000000 0.398000 0.688000
0.180000 0.398000 0.688000
0.360000 0.398000 0.688000
0.540000 0.398000 0.688000
0.720000 0.398000 0.688000
0.900000 0.398000 0.688000
0.000000 0.592000 0.688000
0.180000 0.592000 0.688000
0.360000 0.592000 0.688000
0.540000 0.592000 0.688000
0.720000 0.592000 0.688000
0.900000 0.592000 0.688000
0.000000 0.786000 0.688000
0.180000 0.786000 0.688000
0.360000 0.786000 0.688000
0.540000 0.786000 0.688000
0.720000 0.786000 0.688000
0.900000 0.786000 0.688000
0.000000 0.980000 0.688000
0.180000 0.980000 0.688000
0.360000 0.980000 0.688000
0.540000 0.980000 0.688000
0.720000 0.980000 0.688000
0.900000 0.980000 0.688000
0.000000 0.010000 0.904000
0.180000 0.010000 0.904000
0.360000 0.010000 0.904000
0.540000 0.010000 0.904000
0.720000 0.010000 0.904000
0.900000 0.010000 0.904000
0.000000 0.204000 0.904000
0.180000 0.204000 0.904000
0.360000 0.204000 0.904000
0.540000 0.204000 0.904000
0.720000 0.204000 0.904000
0.900000 0.204000 0.904000
0.000000 0.398000 0.904000
0.180000 0.398000 0.904000
0.360000 0.398000 0.904000
0.540000 0.398000 0.904000
0.720000 0.398000 0.904000
0.900000 0.398000 0.904000
0.000000 0.592000 0.904000
0.180000 0.592000 0.904000
0.360000 0.592000 0.904000
0.540000 0.592000 0.904000
0.720000 0.592000 0.904000
0.900000 0.592000 0.904000
0.000000 0.786000 0.904000
0.180000 0.786000 0.904000
0.360000 0.786000 0.904000
0.540000 0.786000 0.904000
0.720000 0.786000 0.904000
0.900000 0.786000 0.904000
0.000000 0.980000 0.904000
0.180000 0.980000 0.904000
0.360000 0.980000 0.904000
0.540000 0.980000 0.904000
0.720000 0.980000 0.904000
0.900000 0.980000 0.904000
0.000000 0.010000 1.000000
0.180000 0.010000 1.000000
0.360000 0.010000 1.000000
0.540000 0.010000 1.000000
0.720000 0.010000 1.000000
0.900000 0.010000 1.000000
0.000000 0.204000 1.000000
0.180000 0.204000 1.000000
0.360000 0.204000 1.000000
0.540000 0.204000 1.000000
0.720000 0.204000 1.000000
0.900000 0.204000 1.000000
0.000000 0.398000 1.000000
0.180000 0.398000 1.000000
0.360000 0.398000 1.000000
0.540000 0.398000 1.000000
0.720000 0.398000 1.000000
0.900000 0.398000 1.000000
0.000000 0.592000 1.000000
0.180000 0.592000 1.000000
0.360000 0.592000 1.000000
0.540000 0.592000 1.000000
0.720000 0.592000 1.000000
0.900000 0.592000 1.000000
0.000000 0.786000 1.000000
0.180000 0.786000 1.000000
0.360000 0.786000 1.000000
0.540000 0.786000 1.000000
0.720000 0.786000 1.000000
0.900000 0.786000 1.000000
0.000000 0.980000 1.000000
0.180000 0.980000 1.000000
0.360000 0.980000 1.000000
0.540000 0.980000 1.000000
0.720000 0.980000 1.000000
0.900000 0.980000 1.000000
